X:86
T:The Mountain Road
M:C
L:1/8
K:D
F2| AF BFAE|F2 AF EFDE|F2 AF BFAF|GFGF EDBE|
F2 AF BFAE| F2 AF EFDE|FA (3AFA BAFB|ABde fd d2 :|
|:dcdB ADFA|dcde fgfe| dcdB ADFA|GEFE EDBA|
dcdB ADFA|dcde fgfe|dcdB ADFA|GEFD EDBD :|
